src/front_assets/svg/player-volume.svg

<?xml version="1.0" encoding="utf-8"?>
<!-- Uploaded to: SVG Repo, www.svgrepo.com, Generator: SVG Repo Mixer Tools -->
<svg width="800px" height="800px" viewBox="0 0 24 24" fill="none" xmlns="http://www.w3.org/2000/svg">
<g clip-path="url(#clip0_429_11245)">
<path d="M13 12C13 10.1158 12.8372 8.26967 12.5248 6.47486C12.4022 5.77087 11.5882 5.4564 11.0053 5.86965L8.51965 7.63163C8.18158 7.87128 7.77742 8 7.36303 8H5C3.89543 8 3 8.89543 3 10V14C3 15.1046 3.89543 16 5 16H7.36303C7.77742 16 8.18158 16.1287 8.51965 16.3684L11.0053 18.1304C11.5882 18.5436 12.4022 18.2291 12.5248 17.5251C12.8372 15.7303 13 13.8842 13 12Z" stroke="#292929" stroke-width="2.5" stroke-linejoin="round"/>
<path d="M16.8767 9C16.9583 9.9892 16.9999 10.9897 16.9999 12C16.9999 13.0103 16.9583 14.0108 16.8767 15" stroke="#292929" stroke-width="2.5" stroke-linecap="round"/>
</g>
<defs>
<clipPath id="clip0_429_11245">
<rect width="24" height="24" fill="white"/>
</clipPath>
</defs>
</svg>

<svg xmlns="http://www.w3.org/2000/svg" width="800" height="800" fill="none" viewBox="0 0 24 24"><g stroke="#292929" stroke-width="2.5" clip-path="url(#a)"><path stroke-linejoin="round" d="M13 12c0-1.884-.163-3.73-.475-5.525-.123-.704-.937-1.019-1.52-.605L8.52 7.632A2 2 0 0 1 7.363 8H5a2 2 0 0 0-2 2v4a2 2 0 0 0 2 2h2.363a2 2 0 0 1 1.157.368l2.485 1.762c.583.414 1.397.1 1.52-.605A32 32 0 0 0 13 12Z"/><path stroke-linecap="round" d="M16.877 9a36.5 36.5 0 0 1 0 6"/></g><defs><clipPath id="a"><path fill="#fff" d="M0 0h24v24H0z"/></clipPath></defs></svg>
